UI/POI/SVG/bank_outline_24px.svg

<svg width="24" height="24" viewBox="0 0 24 24" fill="none" xmlns="http://www.w3.org/2000/svg">
<path d="M22 8H2V6H22V8ZM22 2H2V4H22V2ZM6 12V10H2V22H6V20H4V12H6ZM18 10V12H20V20H18V22H22V10H18ZM10 12H8L5.5 14.5L6.91 15.91L8 14.82V20H10V12ZM18 13V19C18 19.2652 17.8946 19.5196 17.7071 19.7071C17.5196 19.8946 17.2652 20 17 20H13C12.7348 20 12.4804 19.8946 12.2929 19.7071C12.1054 19.5196 12 19.2652 12 19V13C12 12.7348 12.1054 12.4804 12.2929 12.2929C12.4804 12.1054 12.7348 12 13 12H17C17.2652 12 17.5196 12.1054 17.7071 12.2929C17.8946 12.4804 18 12.7348 18 13ZM16 14H14V18H16V14Z" fill="#0F1621"/>
</svg>

<svg xmlns="http://www.w3.org/2000/svg" width="24" height="24" viewBox="0 0 24 24"><rect width="24" height="24" style="fill:none"/><path d="M22,8H2V6H22Zm0-6H2V4H22ZM6,12V10H2V22H6V20H4V12Zm12-2v2h2v8H18v2h4V10Zm-8,2H8L5.5,14.5l1.41,1.41L8,14.82V20h2Zm8,1v6a1,1,0,0,1-1,1H13a1,1,0,0,1-1-1V13a1,1,0,0,1,1-1h4A1,1,0,0,1,18,13Zm-2,1H14v4h2Z"/></svg>
